icons/1_Primary/Gaijin Entertainment.svg

<svg width="1024" height="1024" fill="none" xmlns="http://www.w3.org/2000/svg"><g clip-path="url(#a)"><path d="M512 1024c282.77 0 512-229.23 512-512S794.77 0 512 0 0 229.23 0 512s229.23 512 512 512Z" fill="#56595B"/><path d="M670.15 272.82c-1.4-7.38 8.23-10.33 7.63-24.85-.78-33.35-47.78-25.4-36.33 13.03 17.33 62.93 7.28 106.67-3.68 128.72-5.45 11-15.91-2.12-17.64-10.23-13.21-62.21-42.37-78.48-26.6-121.13 12.42-33.54-39.66-47.06-36.34.64.33 10.33 15.9 72.1 14.71 108.4-.13 4.39-11.23 7.41-16.14 5.55-22.62-8.53-45.27-11.73-67.89-12.69-99.37 0-180 80.67-180 180 0 74.53 37.13 133.55 97.68 158.39-13.15 18.6-10.5 36.9-22.19 60.28 99-8.43 119.46-68.38 181.6-68.18 57.39-.06 53.71.44 111.16-.4 11.56-.2 6.44-23.95 3.85-28.76-63.6-118.13 7.21-208.4 8-239.62 1.37-52.41-4.85-79.97-17.82-149.15Zm-69.26 364.82c-43.6-9-115.64 46.2-160.51 38-24-4.61-43.24-90.89-59.15-129.91-5-11.72-12-16.21-17.43-24.81-5-7.91-1.2-17.77-2.52-22.75-7.87-29.62 80.67-75.72 159.05-87.84l68.27 3.42 4.89 19.43 21.23 4.69-5.58 37.7-98.27-14c-36.56 14.32-62.24 17.46-90.3 43.37 6 9.16 2.22 21.85 8.41 31 2.15 3.23 12.58 4.36 14.7 7.38-3.71 9.5 9.44 32.32 10.73 38.36l7.34 45.3c33.69-11.89 78.05-32.91 104.42-35.47 20 .37 4.55-32.78.5-51.15-4.94-23-39.85-2.39-69.81 10.11l14.88 31.75-12 17.33-5.45-12.69-8.1 6.84-22.39-61.8 17-20.93 19.27 5.75c20.49-8.93 51.54-33.38 75.76-23 5.24 2.25 5.58 7 7.66 15.31l11.37 4.97c6.6 36.63 55.79 133.88 6.03 123.64Z" fill="#fff"/></g><defs><clipPath id="a"><path fill="#fff" d="M0 0h1024v1024H0z"/></clipPath></defs></svg>

<svg width="1024" height="1024" viewBox="0 0 1024 1024" fill="none" xmlns="http://www.w3.org/2000/svg">
<g clip-path="url(#clip0_2_2256)">
<path d="M512 1024C794.77 1024 1024 794.77 1024 512C1024 229.23 794.77 0 512 0C229.23 0 0 229.23 0 512C0 794.77 229.23 1024 512 1024Z" fill="#56595B"/>
<path d="M670.15 272.82C668.75 265.44 678.38 262.49 677.78 247.97C677 214.62 630 222.57 641.45 261C658.78 323.93 648.73 367.67 637.77 389.72C632.32 400.72 621.86 387.6 620.13 379.49C606.92 317.28 577.76 301.01 593.53 258.36C605.95 224.82 553.87 211.3 557.19 259C557.52 269.33 573.09 331.1 571.9 367.4C571.77 371.79 560.67 374.81 555.76 372.95C533.14 364.42 510.49 361.22 487.87 360.26C388.5 360.26 307.87 440.93 307.87 540.26C307.87 614.79 345 673.81 405.55 698.65C392.4 717.25 395.05 735.55 383.36 758.93C482.36 750.5 502.82 690.55 564.96 690.75C622.35 690.69 618.67 691.19 676.12 690.35C687.68 690.15 682.56 666.4 679.97 661.59C616.37 543.46 687.18 453.19 687.97 421.97C689.34 369.56 683.12 342 670.15 272.82ZM600.89 637.64C557.29 628.64 485.25 683.84 440.38 675.64C416.38 671.03 397.14 584.75 381.23 545.73C376.23 534.01 369.23 529.52 363.8 520.92C358.8 513.01 362.6 503.15 361.28 498.17C353.41 468.55 441.95 422.45 520.33 410.33L588.6 413.75L593.49 433.18L614.72 437.87L609.14 475.57L510.87 461.57C474.31 475.89 448.63 479.03 420.57 504.94C426.57 514.1 422.79 526.79 428.98 535.94C431.13 539.17 441.56 540.3 443.68 543.32C439.97 552.82 453.12 575.64 454.41 581.68L461.75 626.98C495.44 615.09 539.8 594.07 566.17 591.51C586.17 591.88 570.72 558.73 566.67 540.36C561.73 517.36 526.82 537.97 496.86 550.47L511.74 582.22L499.74 599.55L494.29 586.86L486.19 593.7L463.8 531.9L480.8 510.97L500.07 516.72C520.56 507.79 551.61 483.34 575.83 493.72C581.07 495.97 581.41 500.72 583.49 509.03L594.86 514C601.46 550.63 650.65 647.88 600.89 637.64Z" fill="white"/>
</g>
<defs>
<clipPath id="clip0_2_2256">
<rect width="1024" height="1024" fill="white"/>
</clipPath>
</defs>
</svg>
